X:1
T:Title
%%score { 1 | 2 }
L:1/8
Q:1/4=100
M:6/8
K:C
V:1 treble nm="Grand Piano"
V:2 bass 
V:1
 [EG][EG][EG] [Ec][GB][FA] | [EG][EG][EG] E3 | FFF DEF | [FA][EG][DF] [CE]3 | %4
w: Haldor~Lillenas * * * * *||||
 [EG][EG][EG] [Gc][GB][GA] | [GB][GB][GB] [Gd]3 | [^Fd][Fe][Fd] [EFc][DGB][CFA] | %7
w: |||
[M:15/16] GG/-G/GG3/2- G3 |[M:3/4] [EG]3 [Ec]3 | [EG][DF] E F3 | F3 d3 | BA B [Ec]3 | AA Ac BA | %13
w: ||||||
[M:13/16] G^FG[Ge]-<[Ge][=Fd]3/2 |[M:3/4] cc c[FB] [FA][FB] | [Ec]6 |] %16
w: |||
V:2
 [C,C][C,C][C,C] [C,C][C,C][C,C] | [C,C][C,C][C,C] [C,G,C]3 | %2
 [D,G,B,][D,G,B,][D,G,B,] [F,G,B,][E,G,C][D,G,D] | [G,,G,][A,,G,][B,,G,] [C,G,]3 | %4
 [C,C][C,C][C,C] [E,C][E,C][_E,C] | [D,D][D,D][D,D] [D,B,]3 | [D,A,][D,A,][D,A,] D,D,D, | %7
[M:15/16] [G,B,][K:treble][G,B,D]/-[G,B,D]/[G,CE][G,B,F]3/2- [G,B,F]3 | %8
[M:3/4][K:bass] [C,C]3 [C,G,]3 | [C,G,][C,G,] [C,G,C] [D,G,B,]3 | [G,B,D]3 [G,,B,F]3 | %11
 [G,DF][G,CF] [G,DF][K:bass] [C,C]3 | [F,CF][F,CF] [F,CF][F,A,_E] [F,B,E][F,CE] | %13
[M:13/16] [G,CE][^G,C_E][=G,C=E][C,C]-<[C,C][F,A,]3/2 | %14
[M:3/4] [G,E][G,E] [G,E][G,,G,] [G,,G,][G,,G,] | [C,G,]6 |] %16

